svg/fluentui-system-icons/ic_fluent_games_16_regular.svg

<svg width="16" height="16" viewBox="0 0 16 16" fill="none" xmlns="http://www.w3.org/2000/svg">
<path d="M3.50488 7.50018C3.50488 7.22404 3.72874 7.00018 4.00488 7.00018H5.00488V6.00018C5.00488 5.72404 5.22874 5.50018 5.50488 5.50018C5.78102 5.50018 6.00488 5.72404 6.00488 6.00018V7.00018H7.00488C7.28102 7.00018 7.50488 7.22404 7.50488 7.50018C7.50488 7.77633 7.28102 8.00018 7.00488 8.00018H6.00488V9.00018C6.00488 9.27633 5.78102 9.50018 5.50488 9.50018C5.22874 9.50018 5.00488 9.27633 5.00488 9.00018V8.00018H4.00488C3.72874 8.00018 3.50488 7.77633 3.50488 7.50018ZM11 9.00018C11 9.55247 10.5523 10.0002 10 10.0002C9.44772 10.0002 9 9.55247 9 9.00018C9 8.4479 9.44772 8.00018 10 8.00018C10.5523 8.00018 11 8.4479 11 9.00018ZM11 7.00018C11.5523 7.00018 12 6.55247 12 6.00018C12 5.4479 11.5523 5.00018 11 5.00018C10.4477 5.00018 10 5.4479 10 6.00018C10 6.55247 10.4477 7.00018 11 7.00018ZM1.00098 7.5C1.00098 5.01472 3.0157 3 5.50098 3H10.5094C12.9947 3 15.0094 5.01472 15.0094 7.5C15.0094 9.98528 12.9947 12 10.5094 12H5.50098C3.0157 12 1.00098 9.98528 1.00098 7.5ZM5.50098 4C3.56798 4 2.00098 5.567 2.00098 7.5C2.00098 9.433 3.56798 11 5.50098 11H10.5094C12.4424 11 14.0094 9.433 14.0094 7.5C14.0094 5.567 12.4424 4 10.5094 4H5.50098Z" fill="#212121"/>
</svg>

<svg xmlns="http://www.w3.org/2000/svg" width="16" height="16"><path d="M3.505 7.5a.5.5 0 0 1 .5-.5h1V6a.5.5 0 0 1 1 0v1h1a.5.5 0 0 1 0 1h-1v1a.5.5 0 1 1-1 0V8h-1a.5.5 0 0 1-.5-.5ZM11 9a1 1 0 1 1-2 0 1 1 0 0 1 2 0Zm0-2a1 1 0 1 0 0-2 1 1 0 0 0 0 2Zm-9.999.5a4.5 4.5 0 0 1 4.5-4.5h5.008a4.5 4.5 0 1 1 0 9H5.501a4.5 4.5 0 0 1-4.5-4.5Zm4.5-3.5a3.5 3.5 0 1 0 0 7h5.008a3.5 3.5 0 1 0 0-7H5.501Z"/></svg>
